X:1898
T:Bourrée de Creuse
R:Bourrée à 3 temps
C:trad
A:Creuse
O:France
M:3/8
L:1/8
Q:1/4=120
K:C
cgf|g/2f/2ed|cg>f|g3:|
|:d/2e/2fe|d>e f|e/2d/2cd|BA2|d/2e/2fe|d>e f|e/2d/2cB|c3:|


